X:8
T:Bailiff's daughter - Woodrich
%%VWML:SBG-1-2--0
F:http://www.vwml.org/record/SBG/1/2/
Z:Original Sibelius transcriptions by M. & S. Graebe
M:2/4
I:linebreak $
K:F
V:1 treble nm="P1"
V:1
 c | c3 A | F2 Ac | BABG | E2 DC | F2 C2 | F2 GA | G4- | G2 AB |$ cd cA | F2 Ac | BA BG | E2 CC | %13
 F2 AF | GA BA | (F4 | F2) x2 | %17

